;FLAVOR:Marlin
;TIME:1029
;Filament used: 0m, 0.326303m
;Layer height: 0.2
;MINX:18.314
;MINY:51.409
;MINZ:0.2
;MAXX:58.557
;MAXY:91.677
;MAXZ:5.4
;Generated with StratosEngine 1.5.2
T1
M82 ;absolute extrusion mode
;Machine Model: Sigma D25 
;Materials used:  T1 PLA 
;Extruders used:  T1 0.4 
M141 S40 	;Set chamber temperature 
M140 S70 	;Heat build surface
M104 T1 S210	;Heat extruder 1
M190 S70 	;Wait until bed temperature reached 
M109 T1 S210	;Heat extruder 1 and wait
G21 		;metric values 
G90 		;absolute positioning 
M204 S2500 	;set default acceleration 
M205 X12.5 Y12.5 ;set default jerk 
M107 		;start with the fan off 
G28 X0 Y0 	;move X/Y to min endstops 
G28 Z0 		;move Z to min endstops 
G1 Z5 F200 	;safety Z axis movement

T1
G92 E0 		;set zero the extruded length 
G1 E10 F30
G92 E0 
G4 S2 		;stabilize hotend 
G1 E-0.5 F1000 
G92 E0

G4 P1
G4 P2
G4 P3

M141 S40
G92 E0
;LAYER_COUNT:25
;LAYER:0
M107
M204 S456
M205 X9.38 Y9.38
G1 F600 Z0.6
G0 F6000 X50.826 Y87.375 Z0.6
M204 S1425
;TYPE:SKIRT
G1 F600 Z0.2
G1 F1050 E0
G1 F1350 X49.853 Y88.094 E0.01821
G1 X48.675 Y88.877 E0.03949
G1 X47.973 Y89.244 E0.05141
G1 X46.868 Y89.8 E0.07003
G1 X45.59 Y90.364 E0.09105
G1 X44.854 Y90.6 E0.10268
G1 X43.691 Y90.956 E0.12098
G1 X42.31 Y91.303 E0.14241
G1 X41.509 Y91.417 E0.15459
G1 X40.338 Y91.567 E0.17235
G1 X38.906 Y91.677 E0.19396
G1 X38.15 Y91.655 E0.20535
G1 X36.926 Y91.603 E0.22378
G1 X35.51 Y91.471 E0.24518
G1 X34.689 Y91.306 E0.25778
G1 X33.614 Y91.074 E0.27433
G1 X32.18 Y90.692 E0.29667
G1 X31.491 Y90.427 E0.30778
G1 X30.329 Y89.961 E0.32662
G1 X29.04 Y89.365 E0.34799
G1 X28.375 Y88.97 E0.35963
G1 X27.304 Y88.31 E0.37856
G1 X26.148 Y87.513 E0.39969
G1 X25.558 Y87.007 E0.41138
G1 X24.631 Y86.189 E0.42999
G1 X23.641 Y85.224 E0.45079
G1 X23.109 Y84.585 E0.4633
G1 X22.375 Y83.674 E0.48091
G1 X21.54 Y82.527 E0.50226
G1 X21.124 Y81.807 E0.51477
G1 X20.547 Y80.774 E0.53258
G1 X19.976 Y79.648 E0.55158
G1 X19.663 Y78.806 E0.5651
G1 X19.245 Y77.625 E0.58395
G1 X18.843 Y76.272 E0.60519
G1 X18.695 Y75.477 E0.61736
G1 X18.492 Y74.288 E0.63551
G1 X18.325 Y72.887 E0.65674
G1 X18.314 Y72.114 E0.66837
G1 X18.315 Y70.899 E0.68666
G1 X18.387 Y69.466 E0.70825
G1 X18.503 Y68.724 E0.71955
G1 X18.718 Y67.48 E0.73855
G1 X19.023 Y66.124 E0.75946
G1 X19.291 Y65.331 E0.77206
G1 X19.666 Y64.273 E0.78895
G1 X20.217 Y62.925 E0.81087
G1 X20.572 Y62.265 E0.82214
G1 X21.192 Y61.155 E0.84128
G1 X21.936 Y59.97 E0.86233
G1 X22.444 Y59.323 E0.87471
G1 X23.197 Y58.392 E0.89273
G1 X24.115 Y57.365 E0.91346
G1 X24.73 Y56.807 E0.92596
G1 X25.613 Y56.032 E0.94364
G1 X26.727 Y55.145 E0.96507
G1 X27.406 Y54.712 E0.97718
G1 X28.409 Y54.097 E0.99489
G1 X29.685 Y53.395 E1.01681
G1 X30.398 Y53.098 E1.02843
G1 X31.528 Y52.645 E1.04675
G1 X32.871 Y52.184 E1.06812
G1 X33.688 Y51.996 E1.08073
G1 X34.757 Y51.766 E1.09719
G1 X36.225 Y51.522 E1.11958
G1 X37.001 Y51.479 E1.13128
G1 X38.218 Y51.428 E1.14961
G1 X38.921 Y51.409 E1.16019
G1 X40.355 Y51.521 E1.18184
G1 X41.586 Y51.679 E1.20051
G1 X43.03 Y51.938 E1.22259
G1 X43.757 Y52.15 E1.23398
G1 X44.939 Y52.513 E1.25259
G1 X45.834 Y52.809 E1.26678
G1 X46.892 Y53.298 E1.28432
G1 X48.019 Y53.866 E1.30331
G1 X49.284 Y54.584 E1.3252
G1 X49.902 Y55.027 E1.33664
G1 X50.912 Y55.775 E1.35555
G1 X52.008 Y56.677 E1.37691
G1 X52.541 Y57.219 E1.38835
G1 X53.383 Y58.098 E1.40667
G1 X54.313 Y59.171 E1.42804
G1 X54.763 Y59.816 E1.43987
G1 X55.412 Y60.778 E1.45734
G1 X56.173 Y62.034 E1.47944
G1 X56.515 Y62.761 E1.49153
G1 X57.004 Y63.844 E1.50941
G1 X57.527 Y65.175 E1.53093
G1 X57.734 Y65.927 E1.54267
G1 X58.048 Y67.137 E1.56148
G1 X58.329 Y68.499 E1.5824
G1 X58.407 Y69.295 E1.59444
G1 X58.505 Y70.445 E1.61181
G1 X58.557 Y71.909 E1.63385
G1 X58.5 Y72.694 E1.6457
G1 X58.401 Y73.862 E1.66334
G1 X58.245 Y75.131 E1.68258
G1 X58.031 Y76.016 E1.69628
G1 X57.711 Y77.246 E1.71541
G1 X57.285 Y78.594 E1.73668
G1 X56.963 Y79.334 E1.74882
G1 X56.477 Y80.408 E1.76656
G1 X55.822 Y81.681 E1.78811
G1 X55.423 Y82.29 E1.79906
G1 X54.705 Y83.353 E1.81837
G1 X53.864 Y84.47 E1.83941
G1 X53.298 Y85.077 E1.8519
G1 X52.487 Y85.923 E1.86953
G1 X51.446 Y86.903 E1.89105
G1 X50.826 Y87.375 E1.90277
M204 S456
G0 F6000 X50.541 Y86.989
M204 S1425
G1 F1350 X49.573 Y87.704 E1.92088
G1 X48.453 Y88.452 E1.94115
G1 X47.757 Y88.815 E1.95296
G1 X46.659 Y89.368 E1.97146
G1 X45.442 Y89.907 E1.99149
G1 X44.714 Y90.141 E2.003
G1 X43.557 Y90.495 E2.02121
G1 X42.242 Y90.828 E2.04162
G1 X41.448 Y90.941 E2.05369
G1 X40.284 Y91.09 E2.07135
G1 X38.919 Y91.197 E2.09196
G1 X38.171 Y91.176 E2.10322
G1 X36.954 Y91.123 E2.12155
G1 X35.604 Y91 E2.14195
G1 X34.79 Y90.837 E2.15444
G1 X33.721 Y90.606 E2.1709
G1 X32.352 Y90.244 E2.19221
G1 X31.67 Y89.981 E2.20321
G1 X30.515 Y89.518 E2.22193
G1 X29.285 Y88.953 E2.2423
G1 X28.626 Y88.561 E2.25384
G1 X27.562 Y87.905 E2.27265
G1 X26.46 Y87.148 E2.29277
G1 X25.876 Y86.647 E2.30435
G1 X24.953 Y85.834 E2.32286
G1 X24.01 Y84.917 E2.34265
G1 X23.483 Y84.284 E2.35505
G1 X22.752 Y83.378 E2.37256
G1 X21.955 Y82.286 E2.39291
G1 X21.543 Y81.573 E2.4053
G1 X20.97 Y80.547 E2.42299
G1 X20.421 Y79.468 E2.4412
G1 X20.115 Y78.646 E2.4544
G1 X19.7 Y77.472 E2.47314
G1 X19.315 Y76.184 E2.49337
G1 X19.168 Y75.396 E2.50543
G1 X18.966 Y74.214 E2.52348
G1 X18.804 Y72.88 E2.5437
G1 X18.794 Y72.181 E2.55422
G1 X18.795 Y70.906 E2.57341
G1 X18.861 Y69.54 E2.59399
G1 X18.977 Y68.806 E2.60517
G1 X19.19 Y67.567 E2.62409
G1 X19.477 Y66.278 E2.64396
G1 X19.744 Y65.491 E2.65647
G1 X20.116 Y64.439 E2.67326
G1 X20.64 Y63.153 E2.69416
G1 X20.992 Y62.499 E2.70533
G1 X21.608 Y61.395 E2.72436
G1 X22.313 Y60.267 E2.74437
G1 X22.818 Y59.625 E2.75667
G1 X23.566 Y58.699 E2.77458
G1 X24.438 Y57.72 E2.79431
G1 X25.047 Y57.167 E2.80669
G1 X25.925 Y56.396 E2.82427
G1 X26.985 Y55.55 E2.84468
G1 X27.657 Y55.121 E2.85668
G1 X28.655 Y54.509 E2.8743
G1 X29.87 Y53.838 E2.89518
G1 X30.576 Y53.543 E2.9067
G1 X31.699 Y53.093 E2.9249
G1 X32.979 Y52.651 E2.94528
G1 X33.789 Y52.465 E2.95779
G1 X34.852 Y52.236 E2.97415
G1 X36.253 Y52.002 E2.99552
G1 X37.021 Y51.958 E3.0071
G1 X38.231 Y51.908 E3.02533
G1 X38.934 Y51.889 E3.03591
G1 X40.301 Y51.998 E3.05654
G1 X41.518 Y52.154 E3.07501
G1 X42.896 Y52.399 E3.09607
G1 X43.616 Y52.609 E3.10736
G1 X44.791 Y52.97 E3.12585
G1 X45.684 Y53.266 E3.14001
G1 X46.682 Y53.73 E3.15657
G1 X47.797 Y54.292 E3.17536
G1 X49.004 Y54.974 E3.19623
G1 X49.617 Y55.413 E3.20757
G1 X50.62 Y56.156 E3.22636
G1 X51.666 Y57.014 E3.24671
G1 X52.194 Y57.551 E3.25805
G1 X53.032 Y58.425 E3.27627
G1 X53.919 Y59.446 E3.29662
G1 X54.365 Y60.085 E3.30835
G1 X55.01 Y61.041 E3.3257
G1 X55.739 Y62.238 E3.34679
G1 X56.078 Y62.959 E3.35878
G1 X56.564 Y64.036 E3.37656
G1 X57.065 Y65.303 E3.39707
G1 X57.27 Y66.048 E3.40869
G1 X57.582 Y67.251 E3.4274
G1 X57.851 Y68.546 E3.4473
G1 X57.929 Y69.336 E3.45925
G1 X58.026 Y70.479 E3.47651
G1 X58.078 Y71.875 E3.49753
G1 X58.022 Y72.653 E3.50927
G1 X57.923 Y73.815 E3.52682
G1 X57.775 Y75.033 E3.54528
G1 X57.567 Y75.895 E3.55863
G1 X57.248 Y77.118 E3.57765
G1 X56.844 Y78.403 E3.59792
G1 X56.525 Y79.136 E3.60995
G1 X56.043 Y80.203 E3.62757
G1 X55.421 Y81.418 E3.64811
G1 X55.025 Y82.022 E3.65897
G1 X54.312 Y83.079 E3.67816
G1 X53.513 Y84.143 E3.69818
G1 X52.951 Y84.745 E3.71058
G1 X52.145 Y85.585 E3.7281
G1 X51.155 Y86.521 E3.7486
G1 X50.541 Y86.989 E3.76022
M204 S456
G0 F6000 X50.256 Y86.603
M204 S1425
G1 F1350 X49.293 Y87.314 E3.77823
G1 X48.23 Y88.027 E3.79749
G1 X47.541 Y88.387 E3.80919
G1 X46.449 Y88.936 E3.82758
G1 X45.295 Y89.45 E3.84659
G1 X44.573 Y89.682 E3.85801
G1 X43.423 Y90.034 E3.8761
G1 X42.174 Y90.353 E3.8955
G1 X41.387 Y90.465 E3.90747
G1 X40.231 Y90.613 E3.925
G1 X38.933 Y90.717 E3.9446
G1 X38.191 Y90.696 E3.95577
G1 X36.981 Y90.644 E3.97399
G1 X35.698 Y90.529 E3.99338
G1 X34.891 Y90.368 E4.00576
G1 X33.829 Y90.138 E4.02211
G1 X32.524 Y89.796 E4.04242
G1 X31.848 Y89.536 E4.05332
G1 X30.701 Y89.076 E4.07191
G1 X29.53 Y88.54 E4.09129
G1 X28.878 Y88.152 E4.10271
G1 X27.82 Y87.5 E4.12141
G1 X26.773 Y86.784 E4.1405
G1 X26.193 Y86.287 E4.15199
G1 X25.276 Y85.478 E4.1704
G1 X24.378 Y84.61 E4.18919
G1 X23.856 Y83.982 E4.20148
G1 X23.13 Y83.082 E4.21888
G1 X22.37 Y82.046 E4.23821
G1 X21.962 Y81.339 E4.2505
G1 X21.393 Y80.32 E4.26806
G1 X20.866 Y79.288 E4.2855
G1 X20.568 Y78.486 E4.29837
G1 X20.155 Y77.319 E4.317
G1 X19.787 Y76.096 E4.33622
G1 X19.641 Y75.315 E4.34818
G1 X19.441 Y74.14 E4.36612
G1 X19.284 Y72.873 E4.38533
G1 X19.274 Y72.174 E4.39585
G1 X19.274 Y70.913 E4.41482
G1 X19.335 Y69.614 E4.43439
G1 X19.45 Y68.887 E4.44547
G1 X19.662 Y67.655 E4.46428
G1 X19.932 Y66.431 E4.48314
G1 X20.196 Y65.651 E4.49554
G1 X20.566 Y64.606 E4.51222
G1 X21.062 Y63.38 E4.53212
G1 X21.411 Y62.733 E4.54318
G1 X22.024 Y61.635 E4.56211
G1 X22.691 Y60.563 E4.58111
G1 X23.191 Y59.926 E4.59329
G1 X23.935 Y59.006 E4.6111
G1 X24.762 Y58.075 E4.62984
G1 X25.364 Y57.528 E4.64208
G1 X26.237 Y56.761 E4.65956
G1 X27.243 Y55.954 E4.67897
G1 X27.909 Y55.53 E4.69085
G1 X28.901 Y54.921 E4.70837
G1 X30.055 Y54.281 E4.72823
G1 X30.755 Y53.989 E4.73964
G1 X31.871 Y53.541 E4.75774
G1 X33.087 Y53.119 E4.77711
G1 X33.89 Y52.934 E4.78951
G1 X34.947 Y52.707 E4.80578
G1 X36.28 Y52.481 E4.82612
G1 X37.041 Y52.438 E4.83759
G1 X38.244 Y52.388 E4.85571
G1 X38.947 Y52.369 E4.86629
G1 X40.247 Y52.475 E4.88592
G1 X41.45 Y52.629 E4.90417
G1 X42.762 Y52.86 E4.92422
G1 X43.476 Y53.068 E4.93541
G1 X44.644 Y53.426 E4.9538
G1 X45.852 Y53.861 E4.97312
G1 X46.528 Y54.189 E4.98442
G1 X47.574 Y54.717 E5.00206
G1 X48.725 Y55.364 E5.02193
G1 X49.331 Y55.799 E5.03315
G1 X50.329 Y56.538 E5.05184
G1 X51.324 Y57.35 E5.07116
G1 X51.848 Y57.883 E5.08241
G1 X52.68 Y58.752 E5.10052
G1 X53.526 Y59.72 E5.11986
G1 X53.967 Y60.354 E5.13149
G1 X54.608 Y61.303 E5.14872
G1 X55.305 Y62.443 E5.16883
G1 X55.64 Y63.157 E5.18069
G1 X56.124 Y64.227 E5.19837
G1 X56.602 Y65.43 E5.21785
G1 X56.805 Y66.169 E5.22938
G1 X57.116 Y67.366 E5.24799
G1 X57.374 Y68.594 E5.26687
G1 X57.451 Y69.377 E5.27871
G1 X57.547 Y70.513 E5.29587
G1 X57.599 Y71.841 E5.31587
G1 X57.544 Y72.613 E5.32752
G1 X57.445 Y73.767 E5.34495
G1 X57.305 Y74.934 E5.36263
G1 X57.102 Y75.774 E5.37564
G1 X56.786 Y76.989 E5.39453
G1 X56.404 Y78.212 E5.41381
G1 X56.088 Y78.938 E5.42573
G1 X55.608 Y79.999 E5.44325
G1 X55.019 Y81.155 E5.46277
G1 X54.627 Y81.753 E5.47353
G1 X53.918 Y82.804 E5.49261
G1 X53.161 Y83.816 E5.51163
G1 X52.605 Y84.413 E5.52391
G1 X51.804 Y85.248 E5.54132
G1 X50.865 Y86.139 E5.5608
G1 X50.256 Y86.603 E5.57232
M204 S456
G0 F6000 X49.97 Y86.217
M204 S1425
G1 F1350 X49.012 Y86.925 E5.59025
G1 X48.008 Y87.601 E5.60846
G1 X47.326 Y87.958 E5.62005
G1 X46.24 Y88.504 E5.63834
G1 X45.148 Y88.993 E5.65634
G1 X44.433 Y89.223 E5.66764
G1 X43.29 Y89.573 E5.68563
G1 X42.106 Y89.878 E5.70403
G1 X41.325 Y89.989 E5.7159
G1 X40.177 Y90.136 E5.73332
G1 X38.946 Y90.238 E5.75191
G1 X38.212 Y90.217 E5.76296
G1 X37.008 Y90.165 E5.78109
G1 X35.792 Y90.059 E5.79946
G1 X34.993 Y89.898 E5.81173
G1 X33.937 Y89.67 E5.82798
G1 X32.696 Y89.347 E5.84728
G1 X32.027 Y89.09 E5.85807
G1 X30.887 Y88.633 E5.87655
G1 X29.775 Y88.127 E5.89493
G1 X29.129 Y87.743 E5.90624
G1 X28.078 Y87.096 E5.92482
G1 X27.085 Y86.419 E5.9429
G1 X26.51 Y85.926 E5.9543
G1 X25.598 Y85.122 E5.97259
G1 X24.747 Y84.302 E5.99038
G1 X24.23 Y83.681 E6.00254
G1 X23.508 Y82.786 E6.01984
G1 X22.786 Y81.805 E6.03817
G1 X22.381 Y81.105 E6.05034
G1 X21.815 Y80.092 E6.0678
G1 X21.311 Y79.108 E6.08444
G1 X21.02 Y78.326 E6.097
G1 X20.61 Y77.166 E6.11551
G1 X20.258 Y76.007 E6.13374
G1 X20.114 Y75.234 E6.14557
G1 X19.915 Y74.065 E6.16342
G1 X19.764 Y72.866 E6.1816
G1 X19.754 Y72.167 E6.19212
G1 X19.754 Y70.921 E6.21087
G1 X19.81 Y69.688 E6.22945
G1 X19.923 Y68.968 E6.24042
G1 X20.134 Y67.743 E6.25912
G1 X20.387 Y66.585 E6.27696
G1 X20.649 Y65.811 E6.28925
G1 X21.016 Y64.772 E6.30584
G1 X21.485 Y63.607 E6.32474
G1 X21.83 Y62.967 E6.33568
G1 X22.44 Y61.874 E6.35451
G1 X23.069 Y60.859 E6.37248
G1 X23.564 Y60.228 E6.38455
G1 X24.304 Y59.313 E6.40226
G1 X25.085 Y58.43 E6.42
G1 X25.681 Y57.888 E6.43212
G1 X26.549 Y57.126 E6.4495
G1 X27.501 Y56.359 E6.4679
G1 X28.16 Y55.939 E6.47966
G1 X29.147 Y55.333 E6.49709
G1 X30.24 Y54.724 E6.51592
G1 X30.934 Y54.434 E6.52724
G1 X32.043 Y53.989 E6.54522
G1 X33.194 Y53.587 E6.56357
G1 X33.991 Y53.404 E6.57587
G1 X35.042 Y53.177 E6.59205
G1 X36.308 Y52.96 E6.61138
G1 X37.061 Y52.917 E6.62273
G1 X38.256 Y52.867 E6.64073
G1 X38.959 Y52.848 E6.65131
G1 X40.193 Y52.952 E6.66995
G1 X41.328 Y53.097 E6.68717
G1 X42.628 Y53.32 E6.70702
G1 X43.335 Y53.527 E6.7181
G1 X44.496 Y53.883 E6.73638
G1 X45.643 Y54.293 E6.75471
G1 X46.312 Y54.618 E6.7659
G1 X47.352 Y55.143 E6.78343
G1 X48.446 Y55.755 E6.80229
G1 X49.046 Y56.185 E6.8134
G1 X50.038 Y56.919 E6.83197
G1 X50.982 Y57.687 E6.85029
G1 X51.501 Y58.215 E6.86143
G1 X52.329 Y59.08 E6.87945
G1 X53.132 Y59.995 E6.89777
G1 X53.569 Y60.623 E6.90928
G1 X54.206 Y61.566 E6.9264
G1 X54.87 Y62.647 E6.9455
G1 X55.203 Y63.354 E6.95726
G1 X55.684 Y64.419 E6.97484
G1 X56.139 Y65.558 E6.9933
G1 X56.34 Y66.289 E7.00471
G1 X56.65 Y67.48 E7.02323
G1 X56.896 Y68.641 E7.04109
G1 X56.972 Y69.418 E7.05283
G1 X57.069 Y70.547 E7.06989
G1 X57.121 Y71.807 E7.08886
G1 X57.066 Y72.572 E7.10041
G1 X56.968 Y73.72 E7.11774
G1 X56.835 Y74.836 E7.13466
G1 X56.637 Y75.653 E7.14731
G1 X56.323 Y76.861 E7.16609
G1 X55.964 Y78.021 E7.18436
G1 X55.65 Y78.741 E7.19618
G1 X55.174 Y79.795 E7.21359
G1 X54.618 Y80.892 E7.23209
G1 X54.229 Y81.485 E7.24277
G1 X53.524 Y82.529 E7.26172
G1 X52.81 Y83.488 E7.27972
G1 X52.258 Y84.081 E7.29191
G1 X51.462 Y84.911 E7.30921
G1 X50.574 Y85.757 E7.32767
G1 X49.97 Y86.217 E7.3391
M204 S456
G0 F6000 X49.685 Y85.831
M204 S1425
G1 F1350 X48.732 Y86.535 E7.35693
G1 X47.786 Y87.176 E7.37412
G1 X47.11 Y87.529 E7.3856
G1 X46.031 Y88.072 E7.40378
G1 X45 Y88.536 E7.42079
G1 X44.293 Y88.764 E7.43197
G1 X43.156 Y89.112 E7.44986
G1 X42.039 Y89.403 E7.46723
G1 X41.264 Y89.513 E7.47901
G1 X40.123 Y89.659 E7.49632
G1 X38.96 Y89.758 E7.51389
G1 X38.232 Y89.737 E7.52485
G1 X37.036 Y89.686 E7.54286
G1 X35.887 Y89.588 E7.56021
G1 X35.094 Y89.429 E7.57238
G1 X34.044 Y89.202 E7.58855
G1 X32.868 Y88.899 E7.60683
G1 X32.205 Y88.645 E7.61751
G1 X31.073 Y88.191 E7.63586
G1 X30.02 Y87.715 E7.65325
G1 X29.381 Y87.334 E7.66445
G1 X28.336 Y86.691 E7.68291
G1 X27.397 Y86.054 E7.69999
G1 X26.827 Y85.566 E7.71128
G1 X25.92 Y84.767 E7.72947
G1 X25.116 Y83.995 E7.74624
G1 X24.603 Y83.379 E7.75831
G1 X23.886 Y82.489 E7.7755
G1 X23.201 Y81.565 E7.79281
G1 X22.8 Y80.87 E7.80489
G1 X22.238 Y79.865 E7.82222
G1 X21.756 Y78.928 E7.83807
G1 X21.473 Y78.166 E7.8503
G1 X21.065 Y77.013 E7.86871
G1 X20.73 Y75.919 E7.88593
G1 X20.587 Y75.153 E7.89765
G1 X20.389 Y73.991 E7.91539
G1 X20.244 Y72.859 E7.93257
G1 X20.234 Y72.16 E7.94309
G1 X20.234 Y70.928 E7.96163
G1 X20.284 Y69.762 E7.97919
G1 X20.396 Y69.05 E7.99003
G1 X20.605 Y67.83 E8.00866
G1 X20.842 Y66.739 E8.02546
G1 X21.101 Y65.971 E8.03766
G1 X21.467 Y64.938 E8.05415
G1 X21.908 Y63.834 E8.07204
G1 X22.249 Y63.201 E8.08286
G1 X22.856 Y62.114 E8.1016
G1 X23.446 Y61.156 E8.11853
G1 X23.938 Y60.53 E8.13051
G1 X24.674 Y59.62 E8.14812
G1 X25.408 Y58.785 E8.16485
G1 X25.997 Y58.249 E8.17684
G1 X26.861 Y57.49 E8.19414
G1 X27.759 Y56.764 E8.21152
G1 X28.411 Y56.348 E8.22316
G1 X29.394 Y55.745 E8.24051
G1 X30.426 Y55.167 E8.25831
G1 X31.113 Y54.88 E8.26952
G1 X32.215 Y54.438 E8.28738
G1 X33.302 Y54.055 E8.30473
G1 X34.093 Y53.873 E8.31694
G1 X35.137 Y53.648 E8.33301
G1 X36.335 Y53.439 E8.35131
G1 X37.082 Y53.397 E8.36257
G1 X38.269 Y53.347 E8.38045
G1 X38.972 Y53.328 E8.39103
G1 X40.139 Y53.429 E8.40866
G1 X41.267 Y53.573 E8.42577
G1 X42.493 Y53.781 E8.44449
G1 X43.195 Y53.986 E8.45549
G1 X44.349 Y54.34 E8.47366
G1 X45.433 Y54.724 E8.49096
G1 X46.096 Y55.047 E8.50206
G1 X47.13 Y55.568 E8.51948
G1 X48.166 Y56.145 E8.53733
G1 X48.76 Y56.57 E8.54832
G1 X49.746 Y57.3 E8.56678
G1 X50.64 Y58.024 E8.58409
G1 X51.155 Y58.548 E8.59515
G1 X51.978 Y59.407 E8.61305
G1 X52.738 Y60.27 E8.63036
G1 X53.172 Y60.891 E8.64176
G1 X53.805 Y61.829 E8.65879
G1 X54.436 Y62.852 E8.67687
G1 X54.766 Y63.552 E8.68852
G1 X55.244 Y64.61 E8.70599
G1 X55.676 Y65.686 E8.72344
